ibt/assets/img/icons/heart-ico.svg

<svg width="19" height="18" viewBox="0 0 19 18" fill="none" xmlns="http://www.w3.org/2000/svg">
<path fill-rule="evenodd" clip-rule="evenodd" d="M16.7483 2.62892C15.0424 0.248177 11.6182 0.647445 10.4195 3.36687C10.0504 4.20422 8.9496 4.20422 8.5805 3.36687C7.38182 0.647446 3.95759 0.24818 2.25168 2.62892L1.94839 3.05218C0.490431 5.08688 0.700941 7.98847 2.43445 9.75171L9.25062 16.6848C9.37514 16.8115 9.44303 16.8797 9.49556 16.9235C9.4971 16.9248 9.49858 16.926 9.5 16.9272C9.50142 16.926 9.50291 16.9248 9.50445 16.9235C9.55697 16.8797 9.62487 16.8115 9.74938 16.6848L16.5656 9.75171C18.2991 7.98847 18.5096 5.08688 17.0516 3.05217L16.7483 2.62892ZM9.53473 2.90963C11.0477 -0.52279 15.3697 -1.02674 17.5229 1.9782L17.8262 2.40146C19.5941 4.86877 19.3389 8.38728 17.2368 10.5254L10.407 17.4724C10.3014 17.5798 10.198 17.685 10.1027 17.7645C9.99663 17.8529 9.86248 17.9432 9.68879 17.9801C9.56412 18.0066 9.43588 18.0066 9.31121 17.9801C9.13752 17.9432 9.00338 17.8529 8.89733 17.7645C8.80196 17.685 8.69858 17.5798 8.59303 17.4724L1.76321 10.5254C-0.338864 8.38728 -0.594131 4.86877 1.17381 2.40147L1.4771 1.97821C3.63029 -1.02674 7.95231 -0.52279 9.46527 2.90964C9.47111 2.9229 9.47607 2.92624 9.47832 2.92771C9.48243 2.93038 9.4899 2.93336 9.5 2.93336C9.5101 2.93336 9.51757 2.93038 9.52168 2.92771C9.52393 2.92624 9.52889 2.92289 9.53473 2.90963Z" fill="#02324A"/>
</svg>

<svg width="19" height="18" fill="none" xmlns="http://www.w3.org/2000/svg"><path fill-rule="evenodd" clip-rule="evenodd" d="M16.748 2.629c-1.706-2.38-5.13-1.982-6.329.738-.369.837-1.47.837-1.838 0C7.38.647 3.958.248 2.25 2.629l-.303.423C.49 5.087.701 7.988 2.434 9.752l6.817 6.933c.124.127.192.195.245.239l.004.003.004-.003c.053-.044.12-.113.245-.24l6.817-6.932c1.733-1.764 1.944-4.665.486-6.7l-.304-.423zm-7.213.28c1.513-3.432 5.835-3.936 7.988-.93l.303.422c1.768 2.468 1.513 5.986-.59 8.124l-6.829 6.947c-.106.108-.209.213-.304.293a.955.955 0 01-.414.215.907.907 0 01-.378 0 .955.955 0 01-.414-.215c-.095-.08-.198-.185-.304-.293l-6.83-6.947C-.339 8.387-.594 4.87 1.173 2.401l.304-.423c2.153-3.005 6.475-2.5 7.988.932.006.013.011.016.013.018a.04.04 0 00.022.005.04.04 0 00.022-.005c.002-.002.007-.005.013-.018z" fill="#02324A"/></svg>
